src/assets/icons/pinterest.svg

<svg width="24" height="25" fill="none" xmlns="http://www.w3.org/2000/svg"><path d="M0 12.375c0 5.123 3.211 9.497 7.73 11.218-.11-.937-.227-2.482.025-3.566.217-.932 1.401-5.938 1.401-5.938s-.357-.715-.357-1.774c0-1.66.962-2.9 2.161-2.9 1.02 0 1.512.765 1.512 1.682 0 1.025-.653 2.557-.99 3.978-.281 1.189.597 2.159 1.769 2.159 2.123 0 3.756-2.239 3.756-5.471 0-2.861-2.056-4.86-4.991-4.86-3.398 0-5.393 2.549-5.393 5.184 0 1.027.395 2.127.889 2.726a.36.36 0 0 1 .083.343c-.091.378-.293 1.189-.332 1.355-.053.218-.173.265-.4.159-1.492-.694-2.424-2.875-2.424-4.627 0-3.769 2.737-7.229 7.892-7.229 4.144 0 7.365 2.953 7.365 6.899 0 4.117-2.595 7.431-6.199 7.431-1.211 0-2.348-.63-2.738-1.373 0 0-.599 2.282-.744 2.84-.282 1.084-1.064 2.456-1.549 3.235 1.118.344 2.304.529 3.534.529 6.627 0 12-5.373 12-12s-5.373-12-12-12-12 5.373-12 12Z" fill="#303030"/></svg>

<svg width="24" height="25" viewBox="0 0 24 25" fill="none" xmlns="http://www.w3.org/2000/svg">
<path d="M0 12.375C0 17.498 3.211 21.872 7.73 23.593C7.62 22.656 7.503 21.111 7.755 20.027C7.972 19.095 9.156 14.089 9.156 14.089C9.156 14.089 8.799 13.374 8.799 12.315C8.799 10.655 9.761 9.415 10.96 9.415C11.98 9.415 12.472 10.18 12.472 11.097C12.472 12.122 11.819 13.654 11.482 15.075C11.201 16.264 12.079 17.234 13.251 17.234C15.374 17.234 17.007 14.995 17.007 11.763C17.007 8.902 14.951 6.903 12.016 6.903C8.618 6.903 6.623 9.452 6.623 12.087C6.623 13.114 7.018 14.214 7.512 14.813C7.55412 14.8582 7.58387 14.9136 7.59841 14.9736C7.61295 15.0337 7.61177 15.0965 7.595 15.156C7.504 15.534 7.302 16.345 7.263 16.511C7.21 16.729 7.09 16.776 6.863 16.67C5.371 15.976 4.439 13.795 4.439 12.043C4.439 8.274 7.176 4.814 12.331 4.814C16.475 4.814 19.696 7.767 19.696 11.713C19.696 15.83 17.101 19.144 13.497 19.144C12.286 19.144 11.149 18.514 10.759 17.771C10.759 17.771 10.16 20.053 10.015 20.611C9.733 21.695 8.951 23.067 8.466 23.846C9.584 24.19 10.77 24.375 12 24.375C18.627 24.375 24 19.002 24 12.375C24 5.748 18.627 0.375 12 0.375C5.373 0.375 0 5.748 0 12.375Z" fill="#303030"/>
</svg>
